X: 9694
T:Ivy Leaf, The
R:Reel
H:2 versions. 3rd version: \#194.
D:Mary Bergin: Feadoga Stain 2
D:Cran: The Crooked Stair
Z:id:hn-reel-190
M:C|
K:AMix
~A3e cAec|Ae~e2 dBGB|A2ed (3Bcd ed|BGEF GA (3BAG|\
Ae~e2 ae~e2|Ae~e2 dBGB|A2ed (3Bcd ed|BGEF GA (3Bcd||\
eaag ed (3Bcd|~g3d BGBd|1 eaag edcB|AGEF GA (3Bcd:|2\
~A3B =cBcd|(3efg fa gedB||
